X:101
T:Quick Step,2voices. JGi.101
O:Tealby,Lincolnshire
M:2/4
L:1/8
Q:1/4=110
S:Joshua Gibbons MS,1823,Tealby,Lincs.
R:quick step
Z:VMP/R.Greig, 2009
K:F
[V:1]|:f3(g/f/)|ecde|f3a|c’bge|f3g/2f/2|ecde|f3a|f2f2:|
[V:2]|:A3(B/A/)|G2B2|A3f|ageG|A3B/A/|GGBGA2c2|A4:|
[V:1]|c’bg2|c’af2|g a b a|agf2|c’bg2|c’af2|gaba|a2″DC”g2||
[V:2]|age2|gcA2|efgf|fcA2|age2|afA2efgf|f2″DC”e2||

